X: 148
T:Young Parker. JC.147
T:Constant Billy,aka. JC.147
T:Waterman,aka. JC.147
M:6/8
L:1/8
Q:110
C:Constant Billy,Waterman,
S:John Clare,Poet,Helpstone (1793-1864)
R:Jig
O:England
A:Northamptonshire
N:Similar to Morris tune Constant Billy.
Z:vmp.P. Headford
K:D
d/f/|a2f dfa|g2e cBA|f2"crot"d BAG|ABc d2:|!
|:f|g2g gbg|efg afd|efg agf|efga3|!
a2f dfa|g2e cBA|f2d BAG|ABcd2:|]
W:Song text exists. See Deacon.|
